images/programicons/beginners-in-class-icon.svg

<?xml version="1.0" encoding="utf-8"?>
<!-- Generator: Adobe Illustrator 16.0.0, SVG Export Plug-In . SVG Version: 6.00 Build 0)  -->
<!DOCTYPE svg PUBLIC "-//W3C//DTD SVG 1.1//EN" "http://www.w3.org/Graphics/SVG/1.1/DTD/svg11.dtd">
<svg version="1.1" id="Layer_1" xmlns="http://www.w3.org/2000/svg" xmlns:xlink="http://www.w3.org/1999/xlink" x="0px" y="0px"
	 width="100px" height="100px" viewBox="0 0 100 100" enable-background="new 0 0 100 100" xml:space="preserve">
<g display="none">
	<path display="inline" fill="#FFFFFF" d="M52.058,37.646c-0.676-0.075-1.363-0.113-2.058-0.113c-0.695,0-1.382,0.039-2.057,0.113
		c-9.272,1.027-16.508,8.911-16.508,18.451c0,4.959,1.932,9.623,5.438,13.129c3.507,3.506,8.168,5.438,13.127,5.438
		c4.958,0,9.62-1.932,13.128-5.438c0.277-0.279,0.547-0.565,0.805-0.857c2.995-3.393,4.633-7.706,4.633-12.271
		C68.565,46.557,61.329,38.673,52.058,37.646z M61.643,66.352c-2.662,3.019-6.478,4.997-10.748,5.241v-3.359h-1.789v3.359
		c-7.548-0.431-13.667-6.278-14.523-13.708h3.231v-1.788h-3.335c0-8.558,6.962-15.52,15.521-15.52s15.521,6.962,15.521,15.52
		C65.521,60.025,64.055,63.614,61.643,66.352z"/>
	<path display="inline" fill="#FFFFFF" d="M50,42.13v13.966l10.481,9.232c2.17-2.462,3.486-5.692,3.486-9.232
		C63.968,48.384,57.714,42.13,50,42.13z"/>
	<path display="inline" fill="#FFFFFF" d="M46.544,32.046c-0.225-0.486-0.352-1.027-0.352-1.597c0-2.099,1.708-3.807,3.807-3.807
		s3.808,1.708,3.808,3.807c0,0.57-0.127,1.111-0.353,1.597c0.37,0.373,0.616,0.874,0.661,1.43c0.626-0.848,0.995-1.895,0.995-3.027
		c0-2.818-2.293-5.111-5.111-5.111c-2.819,0-5.112,2.293-5.112,5.111c0,1.132,0.37,2.179,0.996,3.027
		C45.93,32.92,46.174,32.419,46.544,32.046z"/>
	<path display="inline" fill="#FFFFFF" d="M47.943,35.871v1.165c0.676-0.074,1.362-0.111,2.057-0.111
		c0.694,0,1.381,0.038,2.058,0.111v-1.165c0,0-0.002,0-0.003,0h-4.11C47.944,35.871,47.943,35.871,47.943,35.871z"/>
	<path display="inline" fill="#FFFFFF" d="M53.41,34.253c0.068-0.183,0.104-0.379,0.104-0.585c0-0.403-0.141-0.775-0.379-1.066
		c-0.309-0.382-0.784-0.628-1.313-0.628h-3.645c-0.529,0-1.004,0.246-1.315,0.628c-0.236,0.291-0.378,0.663-0.378,1.066
		c0,0.206,0.036,0.402,0.105,0.585c0.212,0.576,0.729,1.004,1.354,1.091c0.077,0.011,0.155,0.017,0.235,0.017h0.404h2.836h0.404
		c0.08,0,0.159-0.005,0.235-0.017C52.681,35.257,53.198,34.829,53.41,34.253z"/>
</g>
<g>
	<circle fill="#00539C" cx="50" cy="50" r="50"/>
	<path fill="#FFFFFF" d="M36.821,17.117c-1.68,0-3.042,1.362-3.042,3.042v26.358c0,1.681,1.362,3.042,3.042,3.042H63.18
		c1.679,0,3.04-1.36,3.04-3.042V20.159c0-1.679-1.361-3.042-3.04-3.042H36.821z M62.164,44.503c0,0.551-0.447,1-1,1H38.835
		c-0.553,0-1-0.449-1-1V22.172c0-0.552,0.447-1,1-1h22.329c0.553,0,1,0.448,1,1V44.503z M58.366,41.004
		c0.098,0.25,0.069,0.531-0.079,0.751c-0.152,0.222-0.402,0.354-0.669,0.354h-2.11c-0.331,0-0.632-0.205-0.752-0.517l-1.133-2.95
		c-0.121-0.312-0.421-0.518-0.755-0.518h-5.894c-0.339,0-0.642,0.213-0.758,0.531l-1.062,2.923
		c-0.115,0.319-0.418,0.531-0.758,0.531h-2.013c-0.266,0-0.515-0.13-0.667-0.352c-0.15-0.219-0.182-0.5-0.085-0.747l6.206-15.933
		c0.121-0.31,0.419-0.515,0.753-0.515h2.647c0.332,0,0.629,0.201,0.749,0.507L58.366,41.004z M51.127,35.168
		c0.263,0,0.512-0.129,0.661-0.345c0.151-0.218,0.187-0.494,0.095-0.742l-1.251-3.368c-0.117-0.317-0.421-0.527-0.758-0.526
		c-0.339,0.001-0.641,0.214-0.756,0.531l-1.226,3.367c-0.09,0.248-0.053,0.523,0.097,0.739c0.151,0.215,0.398,0.344,0.662,0.344
		H51.127z M19.79,50.37c-1.68,0-3.041,1.361-3.041,3.041v26.356c0,1.68,1.361,3.044,3.041,3.044h26.357
		c1.68,0,3.041-1.364,3.041-3.044V53.41c0-1.68-1.361-3.041-3.041-3.041H19.79z M45.133,77.752c0,0.554-0.448,1-1,1H21.805
		c-0.554,0-1.001-0.446-1.001-1V55.425c0-0.554,0.447-1.002,1.001-1.002h22.328c0.552,0,1,0.448,1,1.002V77.752z M25.542,58.531
		c0-0.446,0.364-0.812,0.812-0.812c8.904-0.023,10.995-0.379,12.623,2.391c1.182,2.007,0.432,4.843-1.947,5.92
		c3.357,0.977,4.011,4.168,2.8,6.634c-1.608,3.264-4.215,2.814-13.477,2.788c-0.449-0.004-0.812-0.366-0.812-0.816V58.531z
		 M29.934,60.667c-0.448,0.004-0.812,0.366-0.812,0.817v2.474c0,0.448,0.363,0.811,0.812,0.813c3.792,0.017,4.782,0.102,5.58-0.698
		c0.72-0.719,0.67-2.044,0.073-2.72C34.873,60.545,33.775,60.651,29.934,60.667z M29.934,67.72c-0.448,0-0.812,0.365-0.812,0.813
		v3.115c0,0.448,0.363,0.813,0.812,0.814c4.396,0.015,5.408,0.134,6.257-0.815c0.653-0.734,0.652-2.092,0.115-2.863
		C35.494,67.619,34.039,67.705,29.934,67.72z M53.853,50.37c-1.68,0-3.041,1.361-3.041,3.041v26.356c0,1.68,1.361,3.044,3.041,3.044
		H80.21c1.681,0,3.041-1.364,3.041-3.044V53.41c0-1.68-1.36-3.041-3.041-3.041H53.853z M79.195,77.752c0,0.554-0.446,1-0.999,1
		H55.867c-0.554,0-1.001-0.446-1.001-1V55.425c0-0.554,0.447-1.002,1.001-1.002h22.329c0.553,0,0.999,0.448,0.999,1.002V77.752z
		 M71.196,69.729c0.142-0.425,0.6-0.657,1.024-0.522l1.91,0.604c0.212,0.066,0.387,0.219,0.485,0.417
		c0.098,0.197,0.112,0.431,0.038,0.641c-1.169,3.295-3.551,4.95-7.161,4.95c-4.5,0-8.134-3.171-8.134-9.07
		c0-6.272,3.64-9.39,8.353-9.39c3.15,0,5.649,1.324,6.845,4.331c0.089,0.223,0.076,0.472-0.033,0.68
		c-0.11,0.211-0.307,0.367-0.538,0.421l-1.951,0.468c-0.395,0.094-0.799-0.116-0.95-0.493c-0.581-1.446-1.867-2.325-3.554-2.325
		c-3.305,0-4.457,2.708-4.457,6.038c0,3.367,1.015,6.26,4.386,6.26C69.424,72.737,70.597,71.517,71.196,69.729z"/>
</g>
</svg>

<?xml version="1.0" encoding="UTF-8" standalone="no"?>
<svg width="100px" height="100px" viewBox="0 0 100 100" version="1.1" xmlns="http://www.w3.org/2000/svg" xmlns:xlink="http://www.w3.org/1999/xlink" xmlns:sketch="http://www.bohemiancoding.com/sketch/ns">
    <!-- Generator: Sketch 3.0.3 (7891) - http://www.bohemiancoding.com/sketch -->
    <title>beginners-in-class-icon</title>
    <desc>Created with Sketch.</desc>
    <defs></defs>
    <g id="Page-1" stroke="none" stroke-width="1" fill="none" fill-rule="evenodd" sketch:type="MSPage">
        <g id="beginners-in-class-icon" sketch:type="MSLayerGroup">
            <g id="Group" sketch:type="MSShapeGroup">
                <circle id="Oval" fill="#4990E2" cx="50" cy="50" r="50"></circle>
                <path d="M36.821,17.117 C35.141,17.117 33.779,18.479 33.779,20.159 L33.779,46.517 C33.779,48.198 35.141,49.559 36.821,49.559 L63.18,49.559 C64.859,49.559 66.22,48.199 66.22,46.517 L66.22,20.159 C66.22,18.48 64.859,17.117 63.18,17.117 L36.821,17.117 L36.821,17.117 Z M62.164,44.503 C62.164,45.054 61.717,45.503 61.164,45.503 L38.835,45.503 C38.282,45.503 37.835,45.054 37.835,44.503 L37.835,22.172 C37.835,21.62 38.282,21.172 38.835,21.172 L61.164,21.172 C61.717,21.172 62.164,21.62 62.164,22.172 L62.164,44.503 L62.164,44.503 Z M58.366,41.004 C58.464,41.254 58.435,41.535 58.287,41.755 C58.135,41.977 57.885,42.109 57.618,42.109 L55.508,42.109 C55.177,42.109 54.876,41.904 54.756,41.592 L53.623,38.642 C53.502,38.33 53.202,38.124 52.868,38.124 L46.974,38.124 C46.635,38.124 46.332,38.337 46.216,38.655 L45.154,41.578 C45.039,41.897 44.736,42.109 44.396,42.109 L42.383,42.109 C42.117,42.109 41.868,41.979 41.716,41.757 C41.566,41.538 41.534,41.257 41.631,41.01 L47.837,25.077 C47.958,24.767 48.256,24.562 48.59,24.562 L51.237,24.562 C51.569,24.562 51.866,24.763 51.986,25.069 L58.366,41.004 L58.366,41.004 Z M51.127,35.168 C51.39,35.168 51.639,35.039 51.788,34.823 C51.939,34.605 51.975,34.329 51.883,34.081 L50.632,30.713 C50.515,30.396 50.211,30.186 49.874,30.187 C49.535,30.188 49.233,30.401 49.118,30.718 L47.892,34.085 C47.802,34.333 47.839,34.608 47.989,34.824 C48.14,35.039 48.387,35.168 48.651,35.168 L51.127,35.168 L51.127,35.168 Z M19.79,50.37 C18.11,50.37 16.749,51.731 16.749,53.411 L16.749,79.767 C16.749,81.447 18.11,82.811 19.79,82.811 L46.147,82.811 C47.827,82.811 49.188,81.447 49.188,79.767 L49.188,53.41 C49.188,51.73 47.827,50.369 46.147,50.369 L19.79,50.369 L19.79,50.37 Z M45.133,77.752 C45.133,78.306 44.685,78.752 44.133,78.752 L21.805,78.752 C21.251,78.752 20.804,78.306 20.804,77.752 L20.804,55.425 C20.804,54.871 21.251,54.423 21.805,54.423 L44.133,54.423 C44.685,54.423 45.133,54.871 45.133,55.425 L45.133,77.752 L45.133,77.752 Z M25.542,58.531 C25.542,58.085 25.906,57.719 26.354,57.719 C35.258,57.696 37.349,57.34 38.977,60.11 C40.159,62.117 39.409,64.953 37.03,66.03 C40.387,67.007 41.041,70.198 39.83,72.664 C38.222,75.928 35.615,75.478 26.353,75.452 C25.904,75.448 25.541,75.086 25.541,74.636 L25.541,58.531 L25.542,58.531 Z M29.934,60.667 C29.486,60.671 29.122,61.033 29.122,61.484 L29.122,63.958 C29.122,64.406 29.485,64.769 29.934,64.771 C33.726,64.788 34.716,64.873 35.514,64.073 C36.234,63.354 36.184,62.029 35.587,61.353 C34.873,60.545 33.775,60.651 29.934,60.667 L29.934,60.667 Z M29.934,67.72 C29.486,67.72 29.122,68.085 29.122,68.533 L29.122,71.648 C29.122,72.096 29.485,72.461 29.934,72.462 C34.33,72.477 35.342,72.596 36.191,71.647 C36.844,70.913 36.843,69.555 36.306,68.784 C35.494,67.619 34.039,67.705 29.934,67.72 L29.934,67.72 Z M53.853,50.37 C52.173,50.37 50.812,51.731 50.812,53.411 L50.812,79.767 C50.812,81.447 52.173,82.811 53.853,82.811 L80.21,82.811 C81.891,82.811 83.251,81.447 83.251,79.767 L83.251,53.41 C83.251,51.73 81.891,50.369 80.21,50.369 L53.853,50.369 L53.853,50.37 Z M79.195,77.752 C79.195,78.306 78.749,78.752 78.196,78.752 L55.867,78.752 C55.313,78.752 54.866,78.306 54.866,77.752 L54.866,55.425 C54.866,54.871 55.313,54.423 55.867,54.423 L78.196,54.423 C78.749,54.423 79.195,54.871 79.195,55.425 L79.195,77.752 L79.195,77.752 Z M71.196,69.729 C71.338,69.304 71.796,69.072 72.22,69.207 L74.13,69.811 C74.342,69.877 74.517,70.03 74.615,70.228 C74.713,70.425 74.727,70.659 74.653,70.869 C73.484,74.164 71.102,75.819 67.492,75.819 C62.992,75.819 59.358,72.648 59.358,66.749 C59.358,60.477 62.998,57.359 67.711,57.359 C70.861,57.359 73.36,58.683 74.556,61.69 C74.645,61.913 74.632,62.162 74.523,62.37 C74.413,62.581 74.216,62.737 73.985,62.791 L72.034,63.259 C71.639,63.353 71.235,63.143 71.084,62.766 C70.503,61.32 69.217,60.441 67.53,60.441 C64.225,60.441 63.073,63.149 63.073,66.479 C63.073,69.846 64.088,72.739 67.459,72.739 C69.424,72.737 70.597,71.517 71.196,69.729 L71.196,69.729 Z" id="Shape" fill="#FFFFFF"></path>
            </g>
        </g>
    </g>
</svg>
